X:1
T:Four Part Choralforwikifoniapart01Quant
T:Bach Four Part Choralforwikifoniapart01Quant
C:Bach?
Z:All Rights Reserved
L:1/8
M:4/4
K:C
V:1 bass nm="Solo" snm="Solo"
V:1
 z8 | z8 | z8 | z8 | z8 | z8 | z8 | z8 | z8 | z8 | z8 | z8 | z8 | z8 | z8 | z8 | z8 | %17
 z4 _B,,2 _E,D, | C,2 ^F,2- F,/G,,A,,/- A,,/_B,,A,,/- | A,,/ z/ G,,2 ^F,- F,>_B,,- B,,>C,- | %20
 C,2 D,>^F, _E,/D,/=F,/E,/ D,[C,E,-]/E,/ | .[D,_E,]>C,- C,_B,, A,,G,,3/2^F,3/2 | %22
 C,/-[_B,,-C,]/B,,/A,,/ G,,B,, G,,A,,B,,G,, | %23
 z/ F,,/ z/ G,,/ z/ ^F,,/ z/ D,/ _E,/C,/ z/ E,/- E,<C, | %24
 _B,,B,, A,,<G,,- G,,>D,- [D,_E,-]/E,/^F,- | ^F,/=E,/=F, E,C,/_B,,/ D,/C,B,,/ z/ A,,/B,, | %26
 A,,/G,,/ z/ C,/ D,E,- .E,<_E,- E,2 | _E,/ z/ z z2 z4 |] %28

